X:1
T:La Brea, 76.76 D
T:La Brea, 76.76 D
T:Sarah E. S. Shankland, 1920
T:Public Domain Courtesy of the Cyber Hymnal™
C:Sarah E. S. Shankland, 1920
Z:Public Domain
Z:Courtesy of the Cyber Hymnal™
%%score ( 1 2 ) ( 3 4 )
L:1/8
Q:1/4=110
M:4/4
K:G
V:1 treble 
V:2 treble 
V:3 bass 
V:4 bass 
V:1
 [B,D]2 | [B,D]2 [B,G]2 [A,F]2 [B,G]2 | [CA]4 [B,G]2 [DA]2 | [DB]2 [Dd]2 [Ec]2 [DB]2 | E6 [B,E]2 | %5
 [EA]2 [EB]2 [Ec]2 [Ec]2 | [DF]4 [DG]2 [DA]2 | [B,G]2 [EB]2 [E^c]2 [Gc]2 | d6 [CD]2 | %9
 [B,D]2 [B,G]2 [A,F]2 [B,G]2 | [CA]4 [B,G]2 [DA]2 | [DB]2 [DB]2 [Gc]2 [Gd]2 | [Ge]6 [Gd]2 | %13
 [GB]2 [FA]2 [EG]2 [FA]2 | B4 [B,=D]2 [B,^D]2 | [CE]2 [CG]2 [^CA]2 [=CA]2 | G6 |] %17
V:2
 x2 | x8 | x8 | x8 | (E4 D2) x2 | x8 | x8 | x8 | (F2 E2 D2) x2 | x8 | x8 | x8 | x8 | x8 | %14
 (G2 ^D2) x4 | x8 | (B,2 C2 B,2) |] %17
V:3
 [G,,G,]2 | [G,,G,]2 [G,,D,]2 [G,,D,]2 [G,,G,]2 | [D,F,]4 [E,G,]2 [D,F,]2 | %3
 [G,,G,]2 [B,,G,]2 [E,^G,]2 [E,G,]2 | [C,A,]4 [B,,^G,]2 [D,G,]2 | %5
 [C,A,]2 [B,,^G,]2 [A,,A,]2 [A,,A,]2 | A,4 [B,,G,]2 [D,F,]2 | [E,G,]2 [E,G,]2 [A,,A,]2 A,2 | %8
 (A,2 G,2 F,2) [F,A,]2 | [G,,G,]2 [G,,D,]2 [G,,D,]2 [G,,G,]2 | [D,F,]4 [E,G,]2 [D,F,]2 | %11
 G,2 [=F,G,]2 [E,G,]2 [D,B,]2 | [C,C]6 [G,B,]2 | [G,D]2 C2 [E,B,]2 [=D,C]2 | %14
 (D2 G,2) [G,,G,]2 [G,,G,]2 | [C,G,]2 [C,E,]2 [A,,E,]2 [D,F,]2 | (G,2 E,2 D,2) |] %17
V:4
 x2 | x8 | x8 | x8 | x8 | x8 | (D,2 C,2) x4 | x6 A,2 | D,6 x2 | x8 | x8 | G,2 x6 | x8 | %13
 x2 (D,^D,) x4 | G,4 x4 | x8 | G,,6 |] %17

